img/icons-payable-taxes/04.svg

<svg width="44" height="48" viewBox="0 0 44 48" fill="none" xmlns="http://www.w3.org/2000/svg">
<path d="M33.6717 41.4494C35.9499 35.0774 38.8354 35.1789 42.1749 35.2963C42.4431 35.3058 42.711 35.315 42.9786 35.3211C43.3872 35.331 43.7274 35.001 43.7274 34.5889V27.4566C43.7274 27.0521 43.3996 26.7242 42.995 26.7242C42.5904 26.7242 42.2626 27.0521 42.2626 27.4566V33.8337C42.2505 33.8332 42.2384 33.8328 42.2264 33.8323C38.8066 33.712 34.9311 33.576 32.2922 40.9562C31.4128 43.4157 30.1329 45.2511 28.4858 46.4157H24.3995V22.9418H42.2625V24.6246C42.2625 25.0292 42.5903 25.357 42.9949 25.357C43.3995 25.357 43.7273 25.0292 43.7273 24.6246V22.6678C43.7273 22.0111 43.1931 21.477 42.5365 21.477H41.8646V19.8745C41.8646 19.4699 41.5368 19.1421 41.1322 19.1421C40.7276 19.1421 40.3998 19.4699 40.3998 19.8745V21.477H39.176V18.5702C39.176 18.1656 38.8481 17.8378 38.4436 17.8378C38.039 17.8378 37.7111 18.1656 37.7111 18.5702V21.477H33.3874V18.8309C33.3874 18.0154 32.724 17.3521 31.9086 17.3521H24.3995V5.3915C24.3995 4.73486 23.8652 4.20068 23.2087 4.20068H19.7554V1.40459C19.7555 0.630078 19.1254 0 18.3509 0H16.1738C15.3993 0 14.7692 0.630078 14.7692 1.40459V4.20068H7.81475C7.41025 4.20068 7.08232 4.52852 7.08232 4.93311C7.08232 5.3377 7.41025 5.66553 7.81475 5.66553H22.935V46.4158H15.5548V41.0814C15.5548 40.3667 14.9733 39.7853 14.2586 39.7853H10.1411C9.42637 39.7853 8.84492 40.3667 8.84492 41.0814V46.4158H1.46484V5.66553H4.98262C5.38711 5.66553 5.71504 5.3377 5.71504 4.93311C5.71504 4.52852 5.38711 4.20068 4.98262 4.20068H1.19082C0.53418 4.20068 0 4.73496 0 5.3915V46.6898C0 47.3465 0.53418 47.8807 1.19082 47.8807H28.7133C28.8579 47.8807 28.9994 47.8379 29.1197 47.7575C31.1208 46.4226 32.6522 44.3003 33.6717 41.4494ZM16.234 4.20068V1.46484H18.2906V4.20068H16.234ZM31.9087 18.817C31.9164 18.817 31.9227 18.8231 31.9227 18.831V21.4771H24.3997V18.8171H31.9087V18.817ZM10.3097 46.4158V41.25H14.0899V46.4157H10.3097V46.4158Z" fill="#007A65"/>
</svg>

<svg width="44" height="48" fill="none" xmlns="http://www.w3.org/2000/svg"><path d="M33.672 41.45c2.278-6.373 5.163-6.271 8.503-6.154.268.01.536.019.804.025.408.01.748-.32.748-.732v-7.132a.732.732 0 10-1.464 0v6.377l-.037-.002c-3.42-.12-7.295-.256-9.934 7.124-.88 2.46-2.16 4.295-3.806 5.46h-4.087V22.942h17.864v1.683a.732.732 0 101.464 0v-1.957c0-.657-.534-1.191-1.19-1.191h-.672v-1.602a.732.732 0 10-1.465 0v1.602h-1.224V18.57a.732.732 0 10-1.465 0v2.907h-4.324v-2.646a1.48 1.48 0 00-1.478-1.479h-7.51V5.392c0-.657-.534-1.191-1.19-1.191h-3.454V1.405C19.755.63 19.125 0 18.351 0h-2.177c-.775 0-1.405.63-1.405 1.405V4.2H7.815a.732.732 0 100 1.465h15.12v40.75h-7.38V41.08c0-.714-.582-1.296-1.296-1.296H10.14c-.715 0-1.296.582-1.296 1.296v5.335h-7.38V5.666h3.518a.732.732 0 100-1.465H1.19A1.19 1.19 0 000 5.39v41.3c0 .657.534 1.19 1.19 1.19h27.523a.731.731 0 00.407-.123c2-1.334 3.532-3.457 4.552-6.308zM16.234 4.2V1.466h2.057V4.2h-2.057zm15.675 14.617c.007 0 .014.006.014.014v2.646H24.4v-2.66h7.509zm-21.6 27.599V41.25h3.78v5.166h-3.78z" fill="#007A65"/></svg>
